Catalina-light/actions/22/im-qq.svg

<svg xmlns="http://www.w3.org/2000/svg" viewBox="0 0 22 22">
  <defs id="defs3051">
    <style type="text/css" id="current-color-scheme">
      .ColorScheme-Text {
        color:#4d4d4d
      }
      </style>
  </defs>
 <path 
     style="fill:currentColor;fill-opacity:1;stroke:none"      
	 class="ColorScheme-Text"
        d="M 11.720703 3.0058594 C 10.887844 2.9309526 10.31284 3.5542715 10.238281 4.3808594 C 10.164071 5.2076214 10.617964 5.9250932 11.451172 6 C 12.284031 6.0752552 17.623835 6.8794815 18.863281 12.533203 C 18.916413 12.262668 18.955209 11.985717 18.980469 11.705078 C 19.377823 7.2975967 16.127836 3.4032138 11.720703 3.0058594 z M 8.4082031 3.4042969 C 8.1475971 3.4938366 7.8899714 3.5963865 7.6347656 3.7148438 C 3.6195868 5.5746229 1.8706896 10.337988 3.7304688 14.353516 C 4.0820081 15.112513 4.9088605 15.297971 5.6621094 14.949219 C 6.4146614 14.600467 6.8083964 13.851143 6.4570312 13.091797 C 6.1054919 12.332625 4.1324183 7.3048509 8.4082031 3.4042969 z M 11 7.9179688 C 9.8366799 7.9179688 9.1171728 8.7946945 9.0703125 9.8984375 C 9.0393046 9.9597566 9.0214844 10.030039 9.0214844 10.105469 C 9.0214844 10.11505 9.0230891 10.125185 9.0234375 10.134766 C 8.9462661 10.258275 8.9003906 10.408167 8.9003906 10.572266 C 8.9003906 10.59979 8.901858 10.627296 8.9042969 10.654297 C 8.7185977 10.723455 8.4729193 11.036756 8.2929688 11.460938 C 8.0633707 12.001312 8.0266319 12.517296 8.2109375 12.613281 C 8.3379307 12.679652 8.5362603 12.529282 8.7226562 12.251953 C 8.7965178 12.554368 8.97928 12.827206 9.2402344 13.046875 C 8.966389 13.147912 8.7871094 13.313081 8.7871094 13.5 C 8.7871094 13.80764 9.2719766 14.056641 9.8691406 14.056641 C 10.407773 14.056641 10.853149 13.853374 10.935547 13.587891 C 10.957671 13.587542 11.043026 13.587542 11.064453 13.587891 C 11.147199 13.8532 11.592576 14.056641 12.130859 14.056641 C 12.728023 14.056641 13.212891 13.807466 13.212891 13.5 C 13.212891 13.313256 13.033785 13.147912 12.759766 13.046875 C 13.020372 12.827032 13.203831 12.554368 13.277344 12.251953 C 13.46374 12.529282 13.661895 12.679652 13.789062 12.613281 C 13.973542 12.517296 13.937152 12.001137 13.707031 11.460938 C 13.526732 11.036582 13.282622 10.723455 13.095703 10.654297 C 13.09849 10.62747 13.099609 10.59979 13.099609 10.572266 C 13.099609 10.408342 13.054431 10.258275 12.976562 10.134766 C 12.977956 10.125185 12.976563 10.11505 12.976562 10.105469 C 12.976562 10.029865 12.960173 9.9595824 12.929688 9.8984375 C 12.882479 8.7946945 12.162972 7.9179687 11 7.9179688 z M 16.023438 13.314453 C 15.666803 13.348684 15.334671 13.527008 15.09375 13.869141 C 14.612256 14.553057 11.246397 18.776257 5.7304688 17.023438 C 5.9382916 17.204433 6.1587254 17.377055 6.3886719 17.539062 C 10.006496 20.086765 15.003079 19.217782 17.550781 15.599609 C 18.032798 14.91517 17.77973 14.106916 17.101562 13.628906 C 16.762217 13.390075 16.380072 13.280222 16.023438 13.314453 z "
     />
</svg>

<svg viewBox="0 0 22 22" xmlns="http://www.w3.org/2000/svg">
<defs>
<style id="current-color-scheme" type="text/css">.ColorScheme-Text {
        color:#4d4d4d
      }</style>
</defs>
<path class="ColorScheme-Text" d="m11.721 3.0059c-0.83286-0.074907-1.4079 0.54841-1.4824 1.375-0.07421 0.82676 0.37968 1.5442 1.2129 1.6191 0.83286 0.075255 6.1727 0.87948 7.4121 6.5332 0.053132-0.27054 0.091928-0.54749 0.11719-0.82812 0.39735-4.4075-2.8526-8.3019-7.2598-8.6992zm-3.3125 0.39844c-0.26061 0.08954-0.51823 0.19209-0.77344 0.31055-4.0152 1.8598-5.7641 6.6231-3.9043 10.639 0.35154 0.759 1.1784 0.94446 1.9316 0.5957 0.75255-0.34875 1.1463-1.0981 0.79492-1.8574-0.35154-0.75917-2.3246-5.7869 1.9512-9.6875zm2.5918 4.5137c-1.1633 0-1.8828 0.87673-1.9297 1.9805-0.031008 0.061319-0.048828 0.1316-0.048828 0.20703 0 0.009581 0.0016047 0.019716 0.0019531 0.029297-0.077171 0.12351-0.12305 0.2734-0.12305 0.4375 0 0.027524 0.0014674 0.05503 0.0039063 0.082031-0.1857 0.069158-0.43138 0.38246-0.61133 0.80664-0.2296 0.54037-0.26634 1.0564-0.082031 1.1523 0.12699 0.066371 0.32532-0.083999 0.51172-0.36133 0.073862 0.30242 0.25662 0.57525 0.51758 0.79492-0.27385 0.10104-0.45312 0.26621-0.45312 0.45312 0 0.30764 0.48487 0.55664 1.082 0.55664 0.53863 0 0.98401-0.20327 1.0664-0.46875 0.022124-3.49e-4 0.10748-3.49e-4 0.12891 0 0.082746 0.26531 0.52812 0.46875 1.0664 0.46875 0.59716 0 1.082-0.24918 1.082-0.55664 0-0.18674-0.17911-0.35209-0.45312-0.45312 0.26061-0.21984 0.44406-0.49251 0.51758-0.79492 0.1864 0.27733 0.38455 0.4277 0.51172 0.36133 0.18448-0.095985 0.14809-0.61214-0.082031-1.1523-0.1803-0.42436-0.42441-0.73748-0.61133-0.80664 0.002787-0.026827 0.003906-0.054507 0.003906-0.082031 0-0.16392-0.045178-0.31399-0.12305-0.4375 0.001394-0.009581 1e-6 -0.019716 0-0.029297 0-0.075604-0.016389-0.14589-0.046874-0.20703-0.047209-1.1037-0.76672-1.9805-1.9297-1.9805zm5.0234 5.3965c-0.35664 0.034231-0.68877 0.21256-0.92969 0.55469-0.48149 0.68392-3.8474 4.9071-9.3633 3.1543 0.20782 0.181 0.42826 0.35362 0.6582 0.51562 3.6178 2.5477 8.6144 1.6787 11.162-1.9395 0.48202-0.68444 0.22895-1.4927-0.44922-1.9707-0.33934-0.23883-0.72149-0.34868-1.0781-0.31445z" fill="currentColor"/>
</svg>
